icons/mic-line.svg

<svg viewBox="0 0 24 24" fill="currentColor" xmlns="http://www.w3.org/2000/svg">
    <path d="M11.9998 3C10.3429 3 8.99976 4.34315 8.99976 6V10C8.99976 11.6569 10.3429 13 11.9998 13C13.6566 13 14.9998 11.6569 14.9998 10V6C14.9998 4.34315 13.6566 3 11.9998 3ZM11.9998 1C14.7612 1 16.9998 3.23858 16.9998 6V10C16.9998 12.7614 14.7612 15 11.9998 15C9.23833 15 6.99976 12.7614 6.99976 10V6C6.99976 3.23858 9.23833 1 11.9998 1ZM3.05469 11H5.07065C5.55588 14.3923 8.47329 17 11.9998 17C15.5262 17 18.4436 14.3923 18.9289 11H20.9448C20.4837 15.1716 17.1714 18.4839 12.9998 18.9451V23H10.9998V18.9451C6.82814 18.4839 3.51584 15.1716 3.05469 11Z"/>
</svg>

<svg xmlns="http://www.w3.org/2000/svg" viewBox="0 0 24 24">
    <g>
        <path fill="none" d="M0 0h24v24H0z"/>
        <path d="M12 3a3 3 0 0 0-3 3v4a3 3 0 0 0 6 0V6a3 3 0 0 0-3-3zm0-2a5 5 0 0 1 5 5v4a5 5 0 0 1-10 0V6a5 5 0 0 1 5-5zM3.055 11H5.07a7.002 7.002 0 0 0 13.858 0h2.016A9.004 9.004 0 0 1 13 18.945V23h-2v-4.055A9.004 9.004 0 0 1 3.055 11z"/>
    </g>
</svg>
